X: 119
T: Mairi's Wedding
N: AKA the Lewis Bridal Song
C: Trad. Scotland (1908)
R: march
B: NEFR #54
Z: 2012 John Chambers <jc:trillian.mit.edu>
M: C|
Q: 1/4=180
L: 1/8
K: G
|:"G"D3E D2E2 | G2A2 B4 | "C"A2G2 E2G2 | "D7"B2A2 Bd3 |
 "G"D3E D2E2 | G2A2 B3c/B/ | "C"A2G2 E2C2 | "D7"D4 D4 :|
|:"G"d4 d3e | d2c2 B4 | "C"A2G2 E2G2 | "D"B2A2 Bd3 |
 "G"d3B d3e | d2c2 B3c/B/ | "C"A2G2 E2C2 | "D" D4 D4 :|

%% transpose 5
